assets/svg/fa-plus-square.svg

<svg xmlns="http://www.w3.org/2000/svg" width="100%" height="100%" viewBox="0 0 448 512"><path fill="currentColor" d="M352 240v32c0 6.6-5.4 12-12 12h-88v88c0 6.6-5.4 12-12 12h-32c-6.6 0-12-5.4-12-12v-88h-88c-6.6 0-12-5.4-12-12v-32c0-6.6 5.4-12 12-12h88v-88c0-6.6 5.4-12 12-12h32c6.6 0 12 5.4 12 12v88h88c6.6 0 12 5.4 12 12zM448 80v352c0 26.5-21.5 48-48 48h-352c-26.5 0-48-21.5-48-48v-352c0-26.5 21.5-48 48-48h352c26.5 0 48 21.5 48 48zM400 426v-340c0-3.3-2.7-6-6-6h-340c-3.3 0-6 2.7-6 6v340c0 3.3 2.7 6 6 6h340c3.3 0 6-2.7 6-6z" /></svg>

<svg xmlns="http://www.w3.org/2000/svg" width="100%" height="100%" viewBox="0 0 448 512"><path fill="currentColor" d="M352 240V272C352 278.6 346.6 284 340 284H252V372C252 378.6 246.6 384 240 384H208C201.4 384 196 378.6 196 372V284H108C101.4 284 96 278.6 96 272V240C96 233.4 101.4 228 108 228H196V140C196 133.4 201.4 128 208 128H240C246.6 128 252 133.4 252 140V228H340C346.6 228 352 233.4 352 240zM448 80V432C448 458.5 426.5 480 400 480H48C21.5 480 0 458.5 0 432V80C0 53.5 21.5 32 48 32H400C426.5 32 448 53.5 448 80zM400 426V86C400 82.7 397.3 80 394 80H54C50.7 80 48 82.7 48 86V426C48 429.3 50.7 432 54 432H394C397.3 432 400 429.3 400 426z" /></svg>
